svgs/easy_wallet.svg

<svg width="192" height="192" viewBox="0 0 192 192" fill="none" xmlns="http://www.w3.org/2000/svg">
<path d="M80.118 143.82C82.5969 131.599 84.2167 124.787 90.3206 113.186" stroke="black" stroke-width="12" stroke-linecap="round"/>
<path d="M71.6306 169.88L90.8812 160.249M71.5379 169.688L61.9065 150.438" stroke="black" stroke-width="10" stroke-linecap="round"/>
<path d="M112.629 46.8799C104.575 56.3889 104.799 64.5786 102.426 77.5138" stroke="black" stroke-width="12" stroke-linecap="round"/>
<path d="M121.116 20.819L101.866 30.4504M121.209 21.0114L130.84 40.2619" stroke="black" stroke-width="10" stroke-linecap="round"/>
<path d="M47.9072 79.0925C60.7898 78.6302 67.2782 81.9259 78.5411 89.2951" stroke="black" stroke-width="12" stroke-linecap="round"/>
<path d="M21.8464 70.6051L31.4779 89.8557M22.0388 70.5124L41.2894 60.8809" stroke="black" stroke-width="10" stroke-linecap="round"/>
<path d="M144.847 111.603C134.266 103.468 127.325 101.937 114.213 101.401" stroke="black" stroke-width="12" stroke-linecap="round"/>
<path d="M170.908 120.091L161.277 100.84M170.716 120.183L151.465 129.815" stroke="black" stroke-width="10" stroke-linecap="round"/>
</svg>

<svg xmlns="http://www.w3.org/2000/svg" width="192" height="192" fill="none" viewBox="0 0 192 192" stroke="#000" stroke-linecap="round" stroke-width="12"><path d="M80.118 143.82c2.479-12.221 4.099-19.033 10.203-30.634"/><path stroke-width="10" d="m71.63 169.88 19.251-9.631m-19.343 9.439-9.631-19.25"/><path d="M112.629 46.88c-8.054 9.509-7.83 17.699-10.203 30.634"/><path stroke-width="10" d="m121.116 20.819-19.25 9.631m19.343-9.439 9.631 19.25"/><path d="M47.907 79.093c12.883-.463 19.371 2.833 30.634 10.202"/><path stroke-width="10" d="m21.846 70.605 9.632 19.25m-9.44-19.343 19.251-9.631"/><path d="M144.847 111.603c-10.581-8.135-17.522-9.666-30.634-10.202"/><path stroke-width="10" d="m170.908 120.091-9.631-19.251m9.439 19.343-19.251 9.632"/></svg>
